src/pos-icons/table-eye.svg

<svg height="24" viewBox="0 0 24 24" width="24" xmlns="http://www.w3.org/2000/svg"><path d="m17 16.88c.56 0 1 .44 1 1s-.44 1-1 1-1-.45-1-1 .44-1 1-1m0-3c2.73 0 5.06 1.66 6 4-.94 2.34-3.27 4-6 4s-5.06-1.66-6-4c.94-2.34 3.27-4 6-4m0 1.5c-1.38 0-2.5 1.12-2.5 2.5s1.12 2.5 2.5 2.5 2.5-1.12 2.5-2.5-1.12-2.5-2.5-2.5m1-12.38h-14c-1.1 0-2 .9-2 2v12c0 1.1.9 2 2 2h5.42c-.16-.32-.3-.66-.42-1 .12-.34.26-.68.42-1h-5.42v-4h6v2.97c.55-.86 1.23-1.6 2-2.21v-.76h1.15c1.16-.64 2.47-1 3.85-1 1.06 0 2.07.21 3 .59v-7.59c0-1.1-.9-2-2-2m-8 8h-6v-4h6zm8 0h-6v-4h6z"/></svg>

<?xml version="1.0" encoding="UTF-8"?><!DOCTYPE svg PUBLIC "-//W3C//DTD SVG 1.1//EN" "http://www.w3.org/Graphics/SVG/1.1/DTD/svg11.dtd"><svg xmlns="http://www.w3.org/2000/svg" xmlns:xlink="http://www.w3.org/1999/xlink" version="1.1" id="mdi-table-eye" width="24" height="24" viewBox="0 0 24 24"><path d="M17 16.88C17.56 16.88 18 17.32 18 17.88S17.56 18.88 17 18.88 16 18.43 16 17.88 16.44 16.88 17 16.88M17 13.88C19.73 13.88 22.06 15.54 23 17.88C22.06 20.22 19.73 21.88 17 21.88S11.94 20.22 11 17.88C11.94 15.54 14.27 13.88 17 13.88M17 15.38C15.62 15.38 14.5 16.5 14.5 17.88S15.62 20.38 17 20.38 19.5 19.26 19.5 17.88 18.38 15.38 17 15.38M18 3H4C2.9 3 2 3.9 2 5V17C2 18.1 2.9 19 4 19H9.42C9.26 18.68 9.12 18.34 9 18C9.12 17.66 9.26 17.32 9.42 17H4V13H10V15.97C10.55 15.11 11.23 14.37 12 13.76V13H13.15C14.31 12.36 15.62 12 17 12C18.06 12 19.07 12.21 20 12.59V5C20 3.9 19.1 3 18 3M10 11H4V7H10V11M18 11H12V7H18V11Z" /></svg>
